static/assets/images/icons/pause.svg

<svg width="256" height="256" viewBox="0 0 256 256" fill="none" xmlns="http://www.w3.org/2000/svg">
<path d="M113.316 66.6515V190.348C113.316 194.765 111.577 199 108.481 202.123C105.385 205.246 101.186 207 96.8078 207H68.5081C64.1299 207 59.931 205.246 56.8351 202.123C53.7392 199 52 194.765 52 190.348V66.6515C52.0248 62.243 53.772 58.0221 56.8625 54.9047C59.953 51.7873 64.1375 50.025 68.5081 50H96.8078C101.186 50 105.385 51.7544 108.481 54.8771C111.577 57.9999 113.316 62.2353 113.316 66.6515ZM204 66.6515V190.348C204 194.765 202.261 199 199.165 202.123C196.069 205.246 191.87 207 187.492 207H159.192C154.814 207 150.615 205.246 147.519 202.123C144.423 199 142.684 194.765 142.684 190.348V66.6515C142.709 62.243 144.456 58.0221 147.547 54.9047C150.637 51.7873 154.822 50.025 159.192 50H187.492C191.87 50 196.069 51.7544 199.165 54.8771C202.261 57.9999 204 62.2353 204 66.6515Z" fill="black"/>
</svg>

<svg xmlns="http://www.w3.org/2000/svg" fill="none" viewBox="0 0 256 256"><path fill="#000" d="M113.316 66.652v123.696c0 4.417-1.739 8.652-4.835 11.775A16.44 16.44 0 0 1 96.808 207h-28.3a16.43 16.43 0 0 1-11.673-4.877A16.73 16.73 0 0 1 52 190.348V66.651a16.82 16.82 0 0 1 4.862-11.746A16.53 16.53 0 0 1 68.509 50h28.3c4.378 0 8.577 1.754 11.673 4.877a16.73 16.73 0 0 1 4.835 11.774m90.684 0v123.696c0 4.417-1.739 8.652-4.835 11.775A16.44 16.44 0 0 1 187.492 207h-28.3a16.44 16.44 0 0 1-11.673-4.877 16.73 16.73 0 0 1-4.835-11.775V66.651a16.82 16.82 0 0 1 4.863-11.746A16.53 16.53 0 0 1 159.192 50h28.3c4.378 0 8.577 1.754 11.673 4.877A16.73 16.73 0 0 1 204 66.651"/></svg>
